!!!OTL: Sanba shanzi
!!!ARE: Asia, China,ÿHenan Shangcheng
!! IV, 108
!!!SCT: C1932
!!!YEM: Copyright 1995, estate of Helmut Schaffrath.
**kern
*ICvox
*Ivox
*M2/4
*k[f#c#]
*D:
{8f#
16f#
16a
16b
16dd
16b
16a
=1
16f#
16e
16f#
16a
8e
8e}
=2
{8f#
16f#
16a
16b
16dd
16b
16a
=3
16f#
16e
16f#
16a
8e
8e}
=4
{16f#
16e
16f#
16a
8d
8d
=5
16f#
16e
16f#
16a
8d
8d}
=6
{16f#
16e
16f#
16a
8d
8d
=7
16d
16e
16f#
16a
16e
16f#
16e
16d
=8
16B
16A
16B
16d
8A
8A}
=9
{8f#
16f#
16a
16b
16dd
16b
16a
=10
16f#
16e
16f#
16a
8e
8e}
=11
{8f#
16f#
16a
16b
16dd
16b
16a
=12
16f#
16e
16f#
16a
8e
8e}
=13
{16f#
16e
16f#
16a
8d
8d
=14
16f#
16e
16f#
16a
8d
8d}
=15
{8d
8B
8d
8B
=16
8d
8B
8d
8B}
=17
{16d
16e
16f#
16a
16e
16f#
16e
16d
=18
16B
16A
16B
16d
8A
8A}
==
!!!AGN: Xiaodiao
!!!AMT: simple duple
!!!AIN: vox
!!!EED: Helmut Schaffrath
!!!EEV: 1.0
*-
